icon-themes/sifr_svg/cmd/lc_alphalowliststyle.svg

<svg viewBox="0 0 24 24" xmlns="http://www.w3.org/2000/svg"><path d="m4 1v2h4v2h-4c-1.1 0-2 .9-2 2v2c0 1.1.9 2 2 2h6v-2-6c0-1.1-.9-2-2-2zm8 2v2h10v-2zm-8 4h4v2h-4zm8 0v2h6v-2zm-10 6v10h2 4c1.1 0 2-.9 2-2v-2c0-1.1-.9-2-2-2h-4v-4zm10 1v2h10v-2zm0 4v2h4v-2zm-8 1h4v2h-4z" fill="#555753"/></svg>

<svg xmlns="http://www.w3.org/2000/svg" viewBox="0 0 24 24">
  <path
     style="fill:#555753"
     d="M 4 1 L 4 3 L 8 3 L 8 5 L 4 5 C 2.9 5 2 5.9 2 7 L 2 9 C 2 10.1 2.9 11 4 11 L 10 11 L 10 9 L 10 3 C 10 1.9 9.1 1 8 1 L 4 1 z M 12 3 L 12 5 L 22 5 L 22 3 L 12 3 z M 4 7 L 8 7 L 8 9 L 4 9 L 4 7 z M 12 7 L 12 9 L 18 9 L 18 7 L 12 7 z M 2 13 L 2 23 L 4 23 L 8 23 C 9.1 23 10 22.1 10 21 L 10 19 C 10 17.9 9.1 17 8 17 L 4 17 L 4 13 L 2 13 z M 12 14 L 12 16 L 22 16 L 22 14 L 12 14 z M 12 18 L 12 20 L 16 20 L 16 18 L 12 18 z M 4 19 L 8 19 L 8 21 L 4 21 L 4 19 z "
     />
</svg>
